static/images/past-sponsors/codspeed.svg

<svg fill="none" height="60" viewBox="0 0 301 60" width="301" xmlns="http://www.w3.org/2000/svg" xmlns:xlink="http://www.w3.org/1999/xlink"><linearGradient id="a" gradientUnits="userSpaceOnUse" x1="239.425" x2="239.425" y1="13.6489" y2="45.2979"><stop offset="0" stop-color="#ff8c4a"/><stop offset="1" stop-color="#ff6661"/></linearGradient><mask id="b" height="42" maskUnits="userSpaceOnUse" width="260" x="21" y="9"><path d="m281 9h-260v41.4856h260z" fill="#fff"/></mask><g mask="url(#b)"><g fill="#434c5b"><path d="m29.7078 16.7857-.0006 2.2496c-.0057 2.1609-.0754 3.8032-.2092 4.9267-.1397 1.1734-.5483 2.2561-1.2259 3.248-.6775.9919-1.7846 1.83-3.3213 2.5145 1.8021.7126 3.0454 1.7848 3.73 3.2168.6845 1.4319 1.0268 3.4191 1.0268 5.9617v4.0023c0 1.0758.0803 1.893.241 2.4518.1606.5588.5029.9815 1.0268 1.2678.5238.2865 1.3585.4295 2.5041.4295h.8172v3.3949h-1.844c-2.2911 0-3.964-.6497-5.0188-1.949-1.0547-1.2991-1.5821-3.5273-1.5821-6.6845v-3.1223c0-2.4868-.3387-4.282-1.0163-5.3855-.6776-1.1036-1.9174-1.7114-3.7195-1.8232v-3.5204c1.4389-.0838 2.4936-.454 3.1642-1.1106s1.1001-1.4949 1.2887-2.5147c.1826-.9869.2767-2.2486.2826-3.785l.0003-2.2081.001-.2975c.0148-2.2587.1995-4.0105.5543-5.2556.3702-1.2992 1.0862-2.2562 2.1479-2.87088 1.0618-.61469 2.6055-.92202 4.6311-.92202h1.1106v3.3738h-.461c-1.1176 0-1.9698.1013-2.5565.3038-.5867.2026-.9954.6112-1.2259 1.2259-.2241.5976-.3392 1.5583-.3455 2.8822z"/><path d="m54.4039 24.0074v-1.2276h2.9721v6.4288h-2.9721c-.1291-1.2383-.6246-2.1833-1.486-2.8348-.8615-.6514-1.8577-.9772-2.9883-.9772-.9692 0-1.8388.2584-2.6086.7753-.77.5168-1.3649 1.2169-1.785 2.0999-.42.883-.63 1.8468-.63 2.8913 0 1.7769.4739 3.228 1.4215 4.3533.9477 1.1253 2.1967 1.688 3.7474 1.688 2.4015 0 4.0974-1.1145 5.0883-3.3437l2.7783 1.3245c-1.5615 3.3815-4.2321 5.072-8.0119 5.072-1.6908 0-3.1928-.3984-4.5066-1.1952-1.3138-.797-2.3287-1.8899-3.0449-3.2792-.7162-1.389-1.0741-2.929-1.0741-4.6197 0-1.6584.3633-3.166 1.0902-4.5228.7269-1.3569 1.7258-2.4148 2.9964-3.174 1.2707-.7591 2.6868-1.1387 4.2482-1.1387 1.8522 0 3.4406.5598 4.7651 1.6798zm23.9583 7.285c0 1.6476-.3931 3.1552-1.1793 4.5228-.7861 1.3676-1.8576 2.4498-3.2144 3.2468-1.3569.7968-2.859 1.1952-4.5066 1.1952-1.7014 0-3.236-.3984-4.6036-1.1952-1.3676-.797-2.431-1.8792-3.1903-3.2468-.7591-1.3676-1.1387-2.8752-1.1387-4.5228 0-1.7229.3796-3.2629 1.1387-4.6198.7593-1.3568 1.8173-2.4203 3.1742-3.1902 1.3568-.7698 2.8966-1.1548 4.6197-1.1548 1.6691 0 3.1821.4064 4.5389 1.2195 1.3569.8131 2.423 1.9033 3.1984 3.2709.7753 1.3676 1.163 2.8591 1.163 4.4744zm-8.9003 5.7182c.9907 0 1.9007-.2586 2.7298-.7754.8292-.5169 1.4753-1.2115 1.9384-2.0837.463-.8723.6945-1.8254.6945-2.8591 0-1.0123-.2315-1.9545-.6945-2.8268-.4631-.8722-1.1092-1.5748-1.9384-2.1079-.8291-.533-1.7499-.7996-2.7621-.7996-.9907 0-1.9007.261-2.7299.7834-.8291.5223-1.4808 1.2249-1.9544 2.108-.4739.883-.7108 1.8306-.7108 2.8429s.2369 1.9598.7108 2.8428c.4736.8832 1.1306 1.5831 1.9705 2.1.8401.5168 1.7553.7754 2.7461.7754zm32.7291-.2262v2.9721h-6.3804v-2.4875c-1.7014 1.8522-3.7312 2.7783-6.0896 2.7783-1.6369 0-3.0825-.385-4.337-1.155-1.2546-.77-2.2292-1.8172-2.9237-3.1417-.6945-1.3246-1.042-2.7891-1.042-4.3937 0-1.6367.3689-3.1443 1.1066-4.5228.7376-1.3783 1.7579-2.4739 3.061-3.287 1.303-.8131 2.7137-1.2195 4.232-1.2195 1.0985 0 2.1403.2206 3.1256.6621.9854.4415 1.941 1.1362 2.8671 2.0838v-6.7196h-3.279v-2.9398h6.5903v21.3703zm-11.84.2907c1.0337 0 1.9652-.2746 2.7943-.8238.8294-.5491 1.4808-1.2814 1.9547-2.1967.4737-.9154.7106-1.8953.7106-2.94 0-1.0552-.2369-2.019-.7106-2.8913-.4739-.8722-1.1308-1.5614-1.9708-2.0676-.8399-.5061-1.7876-.7591-2.8428-.7591-1.023 0-1.9357.2718-2.738.8158-.8022.5437-1.4349 1.2653-1.898 2.1644-.4629.8992-.6945 1.8602-.6945 2.8832 0 1.0985.2369 2.0891.7108 2.9721.4737.8832 1.1199 1.5777 1.9384 2.0838.8182.5062 1.7336.7592 2.7459.7592zm24.33-13.5684v-.7269h2.907v5.6374h-2.907v-1.0338c-.97-1.3892-2.294-2.0837-3.974-2.0837-.883 0-1.605.1938-2.164.5815-.56.3877-.84.8884-.84 1.5022 0 .5492.212.98.638 1.2922.425.3124 1.381.5868 2.867.8238l2.245.4361c3.349.6139 5.024 2.256 5.024 4.9266 0 1.5616-.606 2.816-1.818 3.7637-1.211.9476-2.818 1.4215-4.821 1.4215-.797 0-1.581-.1157-2.351-.3473-.769-.2316-1.413-.5196-1.93-.8642v.9207h-2.972v-5.8151h2.972v.5815c.162.8184.617 1.4754 1.365 1.9707.749.4954 1.618.743 2.609.743 1.088 0 1.944-.1911 2.568-.5735.625-.3821.937-.9502.937-1.7041 0-.5491-.248-.9609-.743-1.2356l-.071-.0376c-.516-.2626-1.489-.5328-2.917-.8104l-1.729-.3715c-1.712-.3446-2.966-.9369-3.763-1.7769-.797-.8399-1.196-1.9114-1.196-3.2145 0-1.0552.294-1.9571.881-2.7055.587-.7485 1.338-1.311 2.253-1.688.915-.3769 1.858-.5654 2.827-.5654 1.626 0 2.993.3177 4.103.9531zm26.671 7.8502c0 1.5831-.366 3.0637-1.098 4.4422-.732 1.3783-1.731 2.4659-2.996 3.2629-1.266.7968-2.668 1.1952-4.208 1.1952-2.272 0-4.259-.8723-5.961-2.6166v6.7517h3.312v2.9722h-9.724v-2.9722h3.069v-18.6243h-2.843v-2.9882h6.186v2.7137c.84-.9908 1.766-1.7284 2.779-2.213 1.012-.4846 2.094-.7269 3.247-.7269 1.604 0 3.031.3957 4.28 1.1873 1.249.7915 2.221 1.8603 2.916 3.2064.694 1.346 1.041 2.816 1.041 4.4096zm-8.35 5.8475c.926 0 1.76-.2693 2.503-.8077s1.325-1.2707 1.745-2.1968.63-1.906.63-2.9399c0-1.0445-.232-2.0056-.695-2.8832-.463-.8777-1.098-1.5776-1.906-2.0999s-1.718-.7834-2.73-.7834c-1.055 0-2.003.2774-2.843.8319s-1.491 1.2894-1.954 2.2048-.695 1.9223-.695 3.0206c0 1.7661.557 3.1498 1.672 4.1514 1.115 1.0014 2.539 1.5022 4.273 1.5022zm29.32-5.0882h-14.23c.204 1.626.834 2.9102 1.89 3.8524 1.055.9424 2.347 1.4134 3.876 1.4134 1.12 0 2.159-.2316 3.118-.6945.958-.4632 1.761-1.1738 2.407-2.1323l2.939 1.3245c-.926 1.4431-2.14 2.5333-3.642 3.2711-1.502.7377-3.136 1.1064-4.902 1.1064-1.831 0-3.457-.3823-4.879-1.1468-1.421-.7646-2.528-1.8307-3.319-3.1983-.792-1.3676-1.187-2.9076-1.187-4.6197 0-1.7015.39-3.2359 1.171-4.6037.78-1.3676 1.849-2.4364 3.206-3.2063 1.357-.7698 2.854-1.1548 4.491-1.1548 1.787 0 3.346.3957 4.676 1.1871 1.33.7915 2.377 1.9223 3.142 3.3922.764 1.4699 1.179 3.2064 1.243 5.2093zm-8.997-7.0104c-1.26 0-2.363.4228-3.311 1.268-.948.8453-1.556 1.9626-1.825 3.3518h10.628c-.312-1.3892-.974-2.5065-1.987-3.3518-1.012-.8452-2.18-1.268-3.505-1.268zm29.983 7.0104h-14.23c.204 1.626.834 2.9102 1.89 3.8524 1.055.9424 2.347 1.4134 3.876 1.4134 1.12 0 2.159-.2316 3.118-.6945.958-.4632 1.76-1.1738 2.407-2.1323l2.939 1.3245c-.926 1.4431-2.14 2.5333-3.642 3.2711-1.502.7377-3.136 1.1064-4.902 1.1064-1.831 0-3.457-.3823-4.879-1.1468-1.421-.7646-2.528-1.8307-3.319-3.1983-.792-1.3676-1.187-2.9076-1.187-4.6197 0-1.7015.39-3.2359 1.171-4.6037.78-1.3676 1.849-2.4364 3.206-3.2063 1.357-.7698 2.854-1.1548 4.491-1.1548 1.787 0 3.346.3957 4.676 1.1871 1.33.7915 2.377 1.9223 3.142 3.3922.764 1.4699 1.179 3.2064 1.243 5.2093zm-8.997-7.0104c-1.26 0-2.363.4228-3.311 1.268-.948.8453-1.556 1.9626-1.825 3.3518h10.628c-.312-1.3892-.974-2.5065-1.987-3.3518-1.012-.8452-2.18-1.268-3.505-1.268zm29.757-9.6917v21.3703h3.07v2.9721h-6.38v-2.4875c-1.703 1.8522-3.732 2.7783-6.091 2.7783-1.637 0-3.082-.385-4.337-1.155-1.254-.77-2.229-1.8172-2.923-3.1417-.695-1.3246-1.042-2.7891-1.042-4.3937 0-1.6367.369-3.1443 1.106-4.5228.738-1.3783 1.758-2.4739 3.061-3.287s2.714-1.2195 4.232-1.2195c1.099 0 2.14.2206 3.126.6621.985.4415 1.941 1.1362 2.868 2.0838v-6.7196h-3.28v-2.9398zm-8.835 9.9825c-1.023 0-1.936.2718-2.738.8158-.803.5437-1.435 1.2653-1.898 2.1644-.463.8992-.695 1.8602-.695 2.8832 0 1.0985.237 2.0891.711 2.9721.474.8832 1.12 1.5777 1.938 2.0838.819.5062 1.734.7592 2.746.7592 1.034 0 1.966-.2746 2.795-.8238.829-.5491 1.48-1.2814 1.954-2.1967.474-.9154.712-1.8953.712-2.94 0-1.0552-.238-2.019-.712-2.8913-.474-.8722-1.13-1.5614-1.97-2.0676-.84-.5061-1.788-.7591-2.843-.7591z"/><path d="m276.168 18.1965v2.2031c0 1.6065.092 2.9197.274 3.9395.181 1.0198.617 1.8581 1.309 2.5147s1.736 1.0268 3.133 1.1106v3.5204c-1.803.1118-3.038.7196-3.709 1.8232-.671 1.1035-1.007 2.8987-1.007 5.3855v3.1223c0 3.1572-.516 5.3854-1.55 6.6845-1.034 1.2993-2.766 1.949-5.196 1.949h-1.719v-3.3949h.817c1.147 0 1.983-.143 2.514-.4295.532-.2863.875-.709 1.029-1.2678.148-.5395.223-1.3199.229-2.3413v-4.1128c0-2.5426.346-4.5298 1.038-5.9617.691-1.432 1.939-2.5042 3.74-3.2168-1.551-.6845-2.661-1.5226-3.332-2.5145-.67-.9919-1.078-2.0746-1.225-3.248l-.019-.1529c-.134-1.1696-.202-2.858-.202-5.065v-1.844c0-1.3831-.111-2.3819-.335-2.9966-.223-.6147-.608-1.0233-1.153-1.2259-.544-.2025-1.418-.3038-2.618-.3038h-.483v-3.3738h.985c2.123 0 3.713.30733 4.768.92202 1.055.61468 1.77 1.57168 2.147 2.87088.37 1.2721.558 3.0733.565 5.4036z"/></g><path clip-rule="evenodd" d="m226.979 41.2774c1.434.3217 2.448.0946 2.604.1218l.007.0016c2.385 1.3025 4.12 2.4112 5.794 3.1196-.065.0061-.133.0126-.199.019-1.362.216-2.342.3734-2.94.4715-6.128 1.0062-9.137-.7496-8.477-3.451.264-1.0897 1.754-.6099 3.211-.2825zm20.584-26.2295c3.88 2.8929 4.996 4.3955 7.06 6.7038 5.064 0 7.893 3.8191 6.986 9.5148-.578 3.6232-7.762 2.3493-9.465 0-1.137 1.0388-3.932 3.3409-8.384 6.9066-.056.043-.117.0909-.183.1436-1.3 1.044-6.317.7101-6.797.3537 1.005-1.6671 1.729-2.9696 2.173-3.9071.665-1.4064 1.13-2.816 1.13-5.1516 0-2.3357-1.3-4.3196-4.05-4.268-.242.0045-.513.1908-.513.5569 0 .366.271.557.513.557 1.455 0 2.476 1.8259 2.478 3.1541 0 1.3281-.209 2.4057-.831 4.0247-.537 1.3983-2.7 4.8713-3.264 5.2175-.239.1466-.3.4728-.161.7088.045.0771.09.1177.143.1552.034.0228.063.038.097.0533.039.0176.088.036.147.0558.121.041.284.0876.474.1345.489.1209 1.087.2289 1.757.3067 1.847.2138 3.918.1698 6.123-.2264l.086-.0154c.66-.1209 1.618-.1305 2.566-.0059 1.109.1463 2.119.4599 2.886.9291.674.4115 1.139.9251 1.375 1.5466l.022.0678c.1.331.15.6867.15 1.0668 0 2.0425-4.317.8192-9.308.5989-.314-.0138-.694-.0149-1.141-.0032-2.036-.1032-3.714-.7042-5.96-1.8356l.042-.0073s-.174-.0732-.447-.2003c-.666-.343-1.383-.7299-2.173-1.1618l-.005.0015c-.746-.4691-1.402-.9948-1.569-1.4658-.434-1.2272-.221-1.2272 1.338-3.0408-2.659.3289-2.725.5213-5.758.5213-3.031 0-8.027-.1569-8.027-3.1519 0-1.9965 1.346-2.7731 4.041-2.3296-.656-3.6314.47-6.8995 3.382-9.8045 7.623-7.6097 17.915 2.8759 24.97 2.8759 3.209 0-5.658-5.079-9.344-6.5181-3.685-1.4391 2.116-7.0313 7.441-3.0616zm8.882 10.4695c-.58 0-1.05.5103-1.05 1.1399s.47 1.1402 1.05 1.1402c.579 0 1.049-.5106 1.049-1.1402s-.47-1.1399-1.049-1.1399z" fill="url(#a)" fill-rule="evenodd"/></g></svg>

<svg width="301" height="60" viewBox="0 0 301 60" fill="none" xmlns="http://www.w3.org/2000/svg">
<mask id="mask0_1610_26099" style="mask-type:luminance" maskUnits="userSpaceOnUse" x="21" y="9" width="260" height="42">
<path d="M281 9H21V50.4856H281V9Z" fill="white"/>
</mask>
<g mask="url(#mask0_1610_26099)">
<path d="M29.7078 16.7857L29.7072 19.0353C29.7015 21.1962 29.6318 22.8385 29.498 23.962C29.3583 25.1354 28.9497 26.2181 28.2721 27.21C27.5946 28.2019 26.4875 29.04 24.9508 29.7245C26.7529 30.4371 27.9962 31.5093 28.6808 32.9413C29.3653 34.3732 29.7076 36.3604 29.7076 38.903V42.9053C29.7076 43.9811 29.7879 44.7983 29.9486 45.3571C30.1092 45.9159 30.4515 46.3386 30.9754 46.6249C31.4992 46.9114 32.3339 47.0544 33.4795 47.0544H34.2967V50.4493H32.4527C30.1616 50.4493 28.4887 49.7996 27.4339 48.5003C26.3792 47.2012 25.8518 44.973 25.8518 41.8158V38.6935C25.8518 36.2067 25.5131 34.4115 24.8355 33.308C24.1579 32.2044 22.9181 31.5966 21.116 31.4848V27.9644C22.5549 27.8806 23.6096 27.5104 24.2802 26.8538C24.9508 26.1972 25.3803 25.3589 25.5689 24.3391C25.7515 23.3522 25.8456 22.0905 25.8515 20.5541L25.8518 18.346L25.8528 18.0485C25.8676 15.7898 26.0523 14.038 26.4071 12.7929C26.7773 11.4937 27.4933 10.5367 28.555 9.92202C29.6168 9.30733 31.1605 9 33.1861 9H34.2967V12.3738H33.8357C32.7181 12.3738 31.8659 12.4751 31.2792 12.6776C30.6925 12.8802 30.2838 13.2888 30.0533 13.9035C29.8292 14.5011 29.7141 15.4618 29.7078 16.7857Z" fill="#434C5B"/>
<path d="M54.4039 24.0074V22.7798H57.376V29.2086H54.4039C54.2748 27.9703 53.7793 27.0253 52.9179 26.3738C52.0564 25.7224 51.0602 25.3966 49.9296 25.3966C48.9604 25.3966 48.0908 25.655 47.321 26.1719C46.551 26.6887 45.9561 27.3888 45.536 28.2718C45.116 29.1548 44.906 30.1186 44.906 31.1631C44.906 32.94 45.3799 34.3911 46.3275 35.5164C47.2752 36.6417 48.5242 37.2044 50.0749 37.2044C52.4764 37.2044 54.1723 36.0899 55.1632 33.8607L57.9415 35.1852C56.38 38.5667 53.7094 40.2572 49.9296 40.2572C48.2388 40.2572 46.7368 39.8588 45.423 39.062C44.1092 38.265 43.0943 37.1721 42.3781 35.7828C41.6619 34.3938 41.304 32.8538 41.304 31.1631C41.304 29.5047 41.6673 27.9971 42.3942 26.6403C43.1211 25.2834 44.12 24.2255 45.3906 23.4663C46.6613 22.7072 48.0774 22.3276 49.6388 22.3276C51.491 22.3276 53.0794 22.8874 54.4039 24.0074ZM78.3622 31.2924C78.3622 32.94 77.9691 34.4476 77.1829 35.8152C76.3968 37.1828 75.3253 38.265 73.9685 39.062C72.6116 39.8588 71.1095 40.2572 69.4619 40.2572C67.7605 40.2572 66.2259 39.8588 64.8583 39.062C63.4907 38.265 62.4273 37.1828 61.668 35.8152C60.9089 34.4476 60.5293 32.94 60.5293 31.2924C60.5293 29.5695 60.9089 28.0295 61.668 26.6726C62.4273 25.3158 63.4853 24.2523 64.8422 23.4824C66.199 22.7126 67.7388 22.3276 69.4619 22.3276C71.131 22.3276 72.644 22.734 74.0008 23.5471C75.3577 24.3602 76.4238 25.4504 77.1992 26.818C77.9745 28.1856 78.3622 29.6771 78.3622 31.2924ZM69.4619 37.0106C70.4526 37.0106 71.3626 36.752 72.1917 36.2352C73.0209 35.7183 73.667 35.0237 74.1301 34.1515C74.5931 33.2792 74.8246 32.3261 74.8246 31.2924C74.8246 30.2801 74.5931 29.3379 74.1301 28.4656C73.667 27.5934 73.0209 26.8908 72.1917 26.3577C71.3626 25.8247 70.4418 25.5581 69.4296 25.5581C68.4389 25.5581 67.5289 25.8191 66.6997 26.3415C65.8706 26.8638 65.2189 27.5664 64.7453 28.4495C64.2714 29.3325 64.0345 30.2801 64.0345 31.2924C64.0345 32.3047 64.2714 33.2522 64.7453 34.1352C65.2189 35.0184 65.8759 35.7183 66.7158 36.2352C67.5559 36.752 68.4711 37.0106 69.4619 37.0106ZM102.191 36.7844V39.7565H95.8106V37.269C94.1092 39.1212 92.0794 40.0473 89.721 40.0473C88.0841 40.0473 86.6385 39.6623 85.384 38.8923C84.1294 38.1223 83.1548 37.0751 82.4603 35.7506C81.7658 34.426 81.4183 32.9615 81.4183 31.3569C81.4183 29.7202 81.7872 28.2126 82.5249 26.8341C83.2625 25.4558 84.2828 24.3602 85.5859 23.5471C86.8889 22.734 88.2996 22.3276 89.8179 22.3276C90.9164 22.3276 91.9582 22.5482 92.9435 22.9897C93.9289 23.4312 94.8845 24.1259 95.8106 25.0735V18.3539H92.5316V15.4141H99.1219V36.7844H102.191ZM90.351 37.0751C91.3847 37.0751 92.3162 36.8005 93.1453 36.2513C93.9747 35.7022 94.6261 34.9699 95.1 34.0546C95.5737 33.1392 95.8106 32.1593 95.8106 31.1146C95.8106 30.0594 95.5737 29.0956 95.1 28.2233C94.6261 27.3511 93.9692 26.6619 93.1292 26.1557C92.2893 25.6496 91.3416 25.3966 90.2864 25.3966C89.2634 25.3966 88.3507 25.6684 87.5484 26.2124C86.7462 26.7561 86.1135 27.4777 85.6504 28.3768C85.1875 29.276 84.9559 30.237 84.9559 31.26C84.9559 32.3585 85.1928 33.3491 85.6667 34.2321C86.1404 35.1153 86.7866 35.8098 87.6051 36.3159C88.4233 36.8221 89.3387 37.0751 90.351 37.0751ZM114.681 23.5067V22.7798H117.588V28.4172H114.681V27.3834C113.711 25.9942 112.387 25.2997 110.707 25.2997C109.824 25.2997 109.102 25.4935 108.543 25.8812C107.983 26.2689 107.703 26.7696 107.703 27.3834C107.703 27.9326 107.915 28.3634 108.341 28.6756C108.766 28.988 109.722 29.2624 111.208 29.4994L113.453 29.9355C116.802 30.5494 118.477 32.1915 118.477 34.8621C118.477 36.4237 117.871 37.6781 116.659 38.6258C115.448 39.5734 113.841 40.0473 111.838 40.0473C111.041 40.0473 110.257 39.9316 109.487 39.7C108.718 39.4684 108.074 39.1804 107.557 38.8358V39.7565H104.585V33.9414H107.557V34.5229C107.719 35.3413 108.174 35.9983 108.922 36.4936C109.671 36.989 110.54 37.2366 111.531 37.2366C112.619 37.2366 113.475 37.0455 114.099 36.6631C114.724 36.281 115.036 35.7129 115.036 34.959C115.036 34.4099 114.788 33.9981 114.293 33.7234L114.222 33.6858C113.706 33.4232 112.733 33.153 111.305 32.8754L109.576 32.5039C107.864 32.1593 106.61 31.567 105.813 30.727C105.016 29.8871 104.617 28.8156 104.617 27.5125C104.617 26.4573 104.911 25.5554 105.498 24.807C106.085 24.0585 106.836 23.496 107.751 23.119C108.666 22.7421 109.609 22.5536 110.578 22.5536C112.204 22.5536 113.571 22.8713 114.681 23.5067ZM141.352 31.3569C141.352 32.94 140.986 34.4206 140.254 35.7991C139.522 37.1774 138.523 38.265 137.258 39.062C135.992 39.8588 134.59 40.2572 133.05 40.2572C130.778 40.2572 128.791 39.3849 127.089 37.6406V44.3923H130.401V47.3645H120.677V44.3923H123.746V25.768H120.903V22.7798H127.089V25.4935C127.929 24.5027 128.855 23.7651 129.868 23.2805C130.88 22.7959 131.962 22.5536 133.115 22.5536C134.719 22.5536 136.146 22.9493 137.395 23.7409C138.644 24.5324 139.616 25.6012 140.311 26.9473C141.005 28.2933 141.352 29.7633 141.352 31.3569ZM133.002 37.2044C133.928 37.2044 134.762 36.9351 135.505 36.3967C136.248 35.8583 136.83 35.126 137.25 34.1999C137.67 33.2738 137.88 32.2939 137.88 31.26C137.88 30.2155 137.648 29.2544 137.185 28.3768C136.722 27.4991 136.087 26.7992 135.279 26.2769C134.471 25.7546 133.561 25.4935 132.549 25.4935C131.494 25.4935 130.546 25.7709 129.706 26.3254C128.866 26.8799 128.215 27.6148 127.752 28.5302C127.289 29.4456 127.057 30.4525 127.057 31.5508C127.057 33.3169 127.614 34.7006 128.729 35.7022C129.844 36.7036 131.268 37.2044 133.002 37.2044ZM162.322 32.1162H148.092C148.296 33.7422 148.926 35.0264 149.982 35.9686C151.037 36.911 152.329 37.382 153.858 37.382C154.978 37.382 156.017 37.1504 156.976 36.6875C157.934 36.2243 158.737 35.5137 159.383 34.5552L162.322 35.8797C161.396 37.3228 160.182 38.413 158.68 39.1508C157.178 39.8885 155.544 40.2572 153.778 40.2572C151.947 40.2572 150.321 39.8749 148.899 39.1104C147.478 38.3458 146.371 37.2797 145.58 35.9121C144.788 34.5445 144.393 33.0045 144.393 31.2924C144.393 29.5909 144.783 28.0565 145.564 26.6887C146.344 25.3211 147.413 24.2523 148.77 23.4824C150.127 22.7126 151.624 22.3276 153.261 22.3276C155.048 22.3276 156.607 22.7233 157.937 23.5147C159.267 24.3062 160.314 25.437 161.079 26.9069C161.843 28.3768 162.258 30.1133 162.322 32.1162ZM153.325 25.1058C152.065 25.1058 150.962 25.5286 150.014 26.3738C149.066 27.2191 148.458 28.3364 148.189 29.7256H158.817C158.505 28.3364 157.843 27.2191 156.83 26.3738C155.818 25.5286 154.65 25.1058 153.325 25.1058ZM183.308 32.1162H169.078C169.282 33.7422 169.912 35.0264 170.968 35.9686C172.023 36.911 173.315 37.382 174.844 37.382C175.964 37.382 177.003 37.1504 177.962 36.6875C178.92 36.2243 179.722 35.5137 180.369 34.5552L183.308 35.8797C182.382 37.3228 181.168 38.413 179.666 39.1508C178.164 39.8885 176.53 40.2572 174.764 40.2572C172.933 40.2572 171.307 39.8749 169.885 39.1104C168.464 38.3458 167.357 37.2797 166.566 35.9121C165.774 34.5445 165.379 33.0045 165.379 31.2924C165.379 29.5909 165.769 28.0565 166.55 26.6887C167.33 25.3211 168.399 24.2523 169.756 23.4824C171.113 22.7126 172.61 22.3276 174.247 22.3276C176.034 22.3276 177.593 22.7233 178.923 23.5147C180.253 24.3062 181.3 25.437 182.065 26.9069C182.829 28.3768 183.244 30.1133 183.308 32.1162ZM174.311 25.1058C173.051 25.1058 171.948 25.5286 171 26.3738C170.052 27.2191 169.444 28.3364 169.175 29.7256H179.803C179.491 28.3364 178.829 27.2191 177.816 26.3738C176.804 25.5286 175.636 25.1058 174.311 25.1058ZM204.068 15.4141V36.7844H207.138V39.7565H200.758V37.269C199.055 39.1212 197.026 40.0473 194.667 40.0473C193.03 40.0473 191.585 39.6623 190.33 38.8923C189.076 38.1223 188.101 37.0751 187.407 35.7506C186.712 34.426 186.365 32.9615 186.365 31.3569C186.365 29.7202 186.734 28.2126 187.471 26.8341C188.209 25.4558 189.229 24.3602 190.532 23.5471C191.835 22.734 193.246 22.3276 194.764 22.3276C195.863 22.3276 196.904 22.5482 197.89 22.9897C198.875 23.4312 199.831 24.1259 200.758 25.0735V18.3539H197.478V15.4141H204.068ZM195.233 25.3966C194.21 25.3966 193.297 25.6684 192.495 26.2124C191.692 26.7561 191.06 27.4777 190.597 28.3768C190.134 29.276 189.902 30.237 189.902 31.26C189.902 32.3585 190.139 33.3491 190.613 34.2321C191.087 35.1153 191.733 35.8098 192.551 36.3159C193.37 36.8221 194.285 37.0751 195.297 37.0751C196.331 37.0751 197.263 36.8005 198.092 36.2513C198.921 35.7022 199.572 34.9699 200.046 34.0546C200.52 33.1392 200.758 32.1593 200.758 31.1146C200.758 30.0594 200.52 29.0956 200.046 28.2233C199.572 27.3511 198.916 26.6619 198.076 26.1557C197.236 25.6496 196.288 25.3966 195.233 25.3966Z" fill="#434C5B"/>
<path d="M276.168 18.1965V20.3996C276.168 22.0061 276.26 23.3193 276.442 24.3391C276.623 25.3589 277.059 26.1972 277.751 26.8538C278.443 27.5104 279.487 27.8806 280.884 27.9644V31.4848C279.081 31.5966 277.846 32.2044 277.175 33.308C276.504 34.4115 276.168 36.2067 276.168 38.6935V41.8158C276.168 44.973 275.652 47.2012 274.618 48.5003C273.584 49.7996 271.852 50.4493 269.422 50.4493H267.703V47.0544H268.52C269.667 47.0544 270.503 46.9114 271.034 46.6249C271.566 46.3386 271.909 45.9159 272.063 45.3571C272.211 44.8176 272.286 44.0372 272.292 43.0158V38.903C272.292 36.3604 272.638 34.3732 273.33 32.9413C274.021 31.5093 275.269 30.4371 277.07 29.7245C275.519 29.04 274.409 28.2019 273.738 27.21C273.068 26.2181 272.66 25.1354 272.513 23.962L272.494 23.8091C272.36 22.6395 272.292 20.9511 272.292 18.7441V16.9001C272.292 15.517 272.181 14.5182 271.957 13.9035C271.734 13.2888 271.349 12.8802 270.804 12.6776C270.26 12.4751 269.386 12.3738 268.186 12.3738H267.703V9H268.688C270.811 9 272.401 9.30733 273.456 9.92202C274.511 10.5367 275.226 11.4937 275.603 12.7929C275.973 14.065 276.161 15.8662 276.168 18.1965Z" fill="#434C5B"/>
<path fill-rule="evenodd" clip-rule="evenodd" d="M226.979 41.2774C228.413 41.5991 229.427 41.372 229.583 41.3992L229.59 41.4008C231.975 42.7033 233.71 43.812 235.384 44.5204C235.319 44.5265 235.251 44.533 235.185 44.5394C233.823 44.7554 232.843 44.9128 232.245 45.0109C226.117 46.0171 223.108 44.2613 223.768 41.5599C224.032 40.4702 225.522 40.95 226.979 41.2774ZM247.563 15.0479C251.443 17.9408 252.559 19.4434 254.623 21.7517C259.687 21.7517 262.516 25.5708 261.609 31.2665C261.031 34.8897 253.847 33.6158 252.144 31.2665C251.007 32.3053 248.212 34.6074 243.76 38.1731C243.704 38.2161 243.643 38.264 243.577 38.3167C242.277 39.3607 237.26 39.0268 236.78 38.6704C237.785 37.0033 238.509 35.7008 238.953 34.7633C239.618 33.3569 240.083 31.9473 240.083 29.6117C240.083 27.276 238.783 25.2921 236.033 25.3437C235.791 25.3482 235.52 25.5345 235.52 25.9006C235.52 26.2666 235.791 26.4576 236.033 26.4576C237.488 26.4576 238.509 28.2835 238.511 29.6117C238.511 30.9398 238.302 32.0174 237.68 33.6364C237.143 35.0347 234.98 38.5077 234.416 38.8539C234.177 39.0005 234.116 39.3267 234.255 39.5627C234.3 39.6398 234.345 39.6804 234.398 39.7179C234.432 39.7407 234.461 39.7559 234.495 39.7712C234.534 39.7888 234.583 39.8072 234.642 39.827C234.763 39.868 234.926 39.9146 235.116 39.9615C235.605 40.0824 236.203 40.1904 236.873 40.2682C238.72 40.482 240.791 40.438 242.996 40.0418L243.082 40.0264C243.742 39.9055 244.7 39.8959 245.648 40.0205C246.757 40.1668 247.767 40.4804 248.534 40.9496C249.208 41.3611 249.673 41.8747 249.909 42.4962L249.931 42.564C250.031 42.895 250.081 43.2507 250.081 43.6308C250.081 45.6733 245.764 44.45 240.773 44.2297C240.459 44.2159 240.079 44.2148 239.632 44.2265C237.596 44.1233 235.918 43.5223 233.672 42.3909L233.714 42.3836C233.714 42.3836 233.54 42.3104 233.267 42.1833C232.601 41.8403 231.884 41.4534 231.094 41.0215L231.089 41.023C230.343 40.5539 229.687 40.0282 229.52 39.5572C229.086 38.33 229.299 38.33 230.858 36.5164C228.199 36.8453 228.133 37.0377 225.1 37.0377C222.069 37.0377 217.073 36.8808 217.073 33.8858C217.073 31.8893 218.419 31.1127 221.114 31.5562C220.458 27.9248 221.584 24.6567 224.496 21.7517C232.119 14.142 242.411 24.6276 249.466 24.6276C252.675 24.6276 243.808 19.5486 240.122 18.1095C236.437 16.6704 242.238 11.0782 247.563 15.0479ZM256.445 25.5174C255.865 25.5174 255.395 26.0277 255.395 26.6573C255.395 27.2869 255.865 27.7975 256.445 27.7975C257.024 27.7975 257.494 27.2869 257.494 26.6573C257.494 26.0277 257.024 25.5174 256.445 25.5174Z" fill="url(#paint0_linear_1610_26099)"/>
</g>
<defs>
<linearGradient id="paint0_linear_1610_26099" x1="239.425" y1="13.6489" x2="239.425" y2="45.2979" gradientUnits="userSpaceOnUse">
<stop stop-color="#FF8C4A"/>
<stop offset="1" stop-color="#FF6661"/>
</linearGradient>
</defs>
</svg>
